Numix-Square/48x48/apps/gensgs.svg

<svg xmlns="http://www.w3.org/2000/svg" xmlns:xlink="http://www.w3.org/1999/xlink" height="48" width="48" viewBox="0 0 13.546667 13.546667">
 <defs>
  <linearGradient id="0" gradientUnits="userSpaceOnUse" x2="0" gradientTransform="matrix(1.10525,0,0,1.10525,-134.27874,-295.76183)" y1="279.1" y2="268.33">
   <stop stop-color="#3b5892"/>
   <stop stop-color="#458de1" offset="1"/>
  </linearGradient>
  <linearGradient xlink:href="#0" id="1" gradientUnits="userSpaceOnUse" gradientTransform="matrix(0.28222223,0,0,0.28222223,5.9916667e-7,-283.45334)" y1="1050.36" x2="0" y2="1006.36"/>
 </defs>
 <g transform="matrix(0.28222223,0,0,0.28222223,0,-283.45334)">
  <path d="M 5.1875,1 C 2.8707723,1 1,2.8707723 1,5.1875 l 0,37.625 C 1,45.129228 2.8707723,47 5.1875,47 l 37.625,0 C 45.129228,47 47,45.129228 47,42.8125 L 47,5.1875 C 47,2.8707723 45.129228,1 42.8125,1 L 5.1875,1 z m 0.1875,0.25 37.25,0 c 2.291546,0 4.125,1.8334541 4.125,4.125 l 0,37.25 c 0,2.291546 -1.833454,4.125 -4.125,4.125 l -37.25,0 C 3.0834541,46.75 1.25,44.916546 1.25,42.625 l 0,-37.25 C 1.25,3.0834541 3.0834541,1.25 5.375,1.25 z" transform="translate(0,1004.3622)" opacity="0.05"/>
  <path d="M 5.375,1.25 C 3.0834541,1.25 1.25,3.0834541 1.25,5.375 l 0,37.25 c 0,2.291546 1.8334541,4.125 4.125,4.125 l 37.25,0 c 2.291546,0 4.125,-1.833454 4.125,-4.125 l 0,-37.25 C 46.75,3.0834541 44.916546,1.25 42.625,1.25 l -37.25,0 z m 0.21875,0.25 36.8125,0 C 44.672614,1.5 46.5,3.3273859 46.5,5.59375 l 0,36.8125 C 46.5,44.672614 44.672614,46.5 42.40625,46.5 l -36.8125,0 C 3.3273859,46.5 1.5,44.672614 1.5,42.40625 l 0,-36.8125 C 1.5,3.3273859 3.3273859,1.5 5.59375,1.5 z" transform="translate(0,1004.3622)" opacity="0.1"/>
  <path d="M 5.59375,1.5 C 3.3273859,1.5 1.5,3.3273859 1.5,5.59375 l 0,36.8125 C 1.5,44.672614 3.3273859,46.5 5.59375,46.5 l 36.8125,0 C 44.672614,46.5 46.5,44.672614 46.5,42.40625 l 0,-36.8125 C 46.5,3.3273859 44.672614,1.5 42.40625,1.5 l -36.8125,0 z m 0.09375,0.125 36.625,0 c 2.253773,0 4.0625,1.8087269 4.0625,4.0625 l 0,36.625 c 0,2.253773 -1.808727,4.0625 -4.0625,4.0625 l -36.625,0 c -2.2537731,0 -4.0625,-1.808727 -4.0625,-4.0625 l 0,-36.625 C 1.625,3.4337269 3.4337269,1.625 5.6875,1.625 z" transform="translate(0,1004.3622)" opacity="0.2"/>
  <path d="M 5.6875,1.625 C 3.4337269,1.625 1.625,3.4337269 1.625,5.6875 l 0,36.625 c 0,2.253773 1.8087269,4.0625 4.0625,4.0625 l 36.625,0 c 2.253773,0 4.0625,-1.808727 4.0625,-4.0625 l 0,-36.625 c 0,-2.2537731 -1.808727,-4.0625 -4.0625,-4.0625 l -36.625,0 z m 0.09375,0.125 36.4375,0 c 2.241182,0 4.03125,1.7900679 4.03125,4.03125 l 0,36.4375 c 0,2.241182 -1.790068,4.03125 -4.03125,4.03125 l -36.4375,0 C 3.5400679,46.25 1.75,44.459932 1.75,42.21875 l 0,-36.4375 C 1.75,3.5400679 3.5400679,1.75 5.78125,1.75 z" transform="translate(0,1004.3622)" opacity="0.3"/>
  <path d="M 5.78125,1.75 C 3.5400679,1.75 1.75,3.5400679 1.75,5.78125 l 0,36.4375 c 0,2.241182 1.7900679,4.03125 4.03125,4.03125 l 36.4375,0 c 2.241182,0 4.03125,-1.790068 4.03125,-4.03125 l 0,-36.4375 C 46.25,3.5400679 44.459932,1.75 42.21875,1.75 l -36.4375,0 z m 0.125,0.125 36.1875,0 c 2.228591,0 4.03125,1.802659 4.03125,4.03125 l 0,36.1875 c 0,2.228591 -1.802659,4.03125 -4.03125,4.03125 l -36.1875,0 C 3.677659,46.125 1.875,44.322341 1.875,42.09375 l 0,-36.1875 C 1.875,3.677659 3.677659,1.875 5.90625,1.875 z" transform="translate(0,1004.3622)" opacity="0.4"/>
  <rect rx="4.02" y="1006.24" x="1.875" height="44.25" width="44.25" opacity="0.5"/>
 </g>
 <rect rx="1.129" y="0.564" x="0.564" height="12.418" width="12.418" fill="url(#1)"/>
 <g transform="matrix(0.0301037,0,0,0.03118008,2.2577778,5.0800001)">
  <path d="M 34.4375 18 C 33.28198 18 32.30273 18.701792 31.90625 19.6875 L 30.90625 22.75 L 30.90625 18.15625 L 26.03125 18.15625 C 25.14997 18.15625 24.364717 18.504557 23.78125 19.09375 L 23.78125 18.15625 L 18.78125 18.15625 C 17.851437 18.15625 16.997717 18.573322 16.40625 19.21875 L 16.40625 18.15625 L 11.71875 18.15625 C 9.6876036 18.154482 8.0024533 19.794492 8 21.96875 C 8 22.975339 8.4361534 23.886138 9.0625 24.5625 L 8 24.5625 L 8 29 L 12.75 29 C 14.081946 28.998343 15.384977 28.153558 15.84375 27.15625 L 15.875 27.125 C 16.405027 28.233783 17.501037 29 18.78125 29 L 23.78125 29 L 23.78125 28.03125 C 24.36877 28.622211 25.147623 29 26.03125 29 L 40 29 L 37 19.6875 C 36.58816 18.697704 35.597926 18 34.4375 18 z M 34.125 18.78125 C 34.232831 18.763898 34.32442 18.78125 34.4375 18.78125 C 35.340753 18.78125 36.112283 19.335506 36.34375 20.125 L 38.96875 28.21875 L 33.90625 28.21875 L 33.90625 26.9375 L 37.25 26.9375 L 35.09375 20.34375 C 34.987723 20.084783 34.727207 19.90625 34.4375 19.90625 C 34.146193 19.90625 33.917567 20.114376 33.8125 20.375 L 31.21875 28.21875 L 30.1875 28.21875 L 29.875 28.21875 L 26.03125 28.21875 C 24.64341 28.21875 23.53125 27.058375 23.53125 25.625 L 23.53125 21.5 C 23.53125 20.066735 24.643304 18.90625 26.03125 18.90625 L 30.1875 18.90625 L 30.1875 20.21875 L 26.03125 20.21875 C 25.33941 20.21875 24.78125 20.782539 24.78125 21.5 L 24.78125 25.625 C 24.78125 26.341798 25.371407 26.9375 26.0625 26.9375 L 28.90625 26.9375 L 28.90625 23.40625 L 26.625 23.40625 L 26.625 22.125 L 30.1875 22.125 L 30.1875 27.28125 L 32.5625 20.125 C 32.766527 19.434772 33.370183 18.902717 34.125 18.78125 z M 11.6875 18.90625 L 15.6875 18.90625 L 15.6875 20.21875 L 11.6875 20.21875 C 10.752033 20.21875 10 21.00326 10 21.96875 C 10 22.936891 10.752033 23.71875 11.6875 23.71875 L 12.71875 23.71875 C 13.49315 23.71875 14.125 24.388725 14.125 25.1875 C 14.125 25.987159 13.49315 26.625 12.71875 26.625 L 8.71875 26.625 L 8.71875 25.34375 L 12.71875 25.34375 C 12.797257 25.34375 12.875 25.269698 12.875 25.1875 C 12.875 25.103756 12.797257 25.03125 12.71875 25.03125 L 11.6875 25.03125 C 10.053687 25.03125 8.71875 23.656783 8.71875 21.96875 C 8.71875 20.280717 10.053687 18.90625 11.6875 18.90625 z M 18.78125 18.90625 L 23.0625 18.90625 L 23.0625 20.21875 L 18.78125 20.21875 C 18.087703 20.21875 17.53125 20.796791 17.53125 21.5 L 17.53125 25.625 C 17.53125 26.35594 18.087703 26.9375 18.78125 26.9375 L 23.03125 26.9375 L 23.03125 28.21875 L 18.78125 28.21875 C 17.392664 28.21875 16.28125 27.058375 16.28125 25.625 L 16.28125 21.5 C 16.28125 20.066735 17.392664 18.90625 18.78125 18.90625 z M 34.4375 20.21875 C 34.616487 20.21875 34.789563 20.334942 34.84375 20.5 L 36.84375 26.625 L 33.90625 26.625 L 33.90625 25.46875 L 33 28.21875 L 31.53125 28.21875 L 34.0625 20.5 C 34.11818 20.334942 34.25862 20.21875 34.4375 20.21875 z M 11.6875 20.53125 L 15.6875 20.53125 L 15.6875 21.8125 L 11.6875 21.8125 C 11.605687 21.8125 11.53125 21.883238 11.53125 21.96875 C 11.53125 22.054262 11.605687 22.125 11.6875 22.125 L 12.71875 22.125 C 14.35427 22.125 15.6875 23.49781 15.6875 25.1875 C 15.6875 26.873876 14.35427 28.25 12.71875 28.25 L 8.71875 28.25 L 8.71875 26.9375 L 12.71875 26.9375 C 13.655923 26.9375 14.4375 26.153874 14.4375 25.1875 C 14.4375 24.221789 13.655817 23.4375 12.71875 23.4375 L 11.6875 23.40625 C 10.915447 23.40625 10.28125 22.767525 10.28125 21.96875 C 10.28125 21.170749 10.915553 20.53125 11.6875 20.53125 z M 18.78125 20.53125 L 23.0625 20.53125 L 23.0625 21.8125 L 19.375 21.8125 C 19.080493 21.8125 19.09375 22.125 19.09375 22.125 L 22.15625 22.125 L 22.15625 23.40625 L 17.84375 23.40625 L 17.84375 21.5 C 17.84375 20.951906 18.251223 20.53125 18.78125 20.53125 z M 26.03125 20.53125 L 30.1875 20.53125 L 30.1875 21.8125 L 26.625 21.8125 C 26.327933 21.820013 26.34375 22.125 26.34375 22.125 L 26.34375 25.03125 C 26.34375 25.198076 26.463933 25.34375 26.625 25.34375 L 27.375 25.34375 L 27.375 25.03125 L 26.625 25.03125 L 26.625 23.71875 L 28.625 23.71875 L 28.625 26.625 L 26.03125 26.625 C 25.502077 26.625 25.09375 26.174199 25.09375 25.625 L 25.09375 21.5 C 25.09375 20.951906 25.502077 20.53125 26.03125 20.53125 z M 17.84375 23.71875 L 22.15625 23.71875 L 22.15625 25.03125 L 19.09375 25.03125 C 19.097803 25.336287 19.375 25.34375 19.375 25.34375 L 23.03125 25.34375 L 23.03125 26.625 L 18.78125 26.625 C 18.252823 26.625 17.84375 26.171548 17.84375 25.625 L 17.84375 23.71875 z M 34.4375 23.84375 L 34 25.1875 L 34.875 25.1875 L 34.4375 23.84375 z " transform="matrix(9.3750014,0,0,9.0513632,-75.00001,-162.92454)" fill="#ffffff"/>
  <path d="m 281.504,17.638999 c 2.216,0 4.302,-0.865 5.865,-2.42 1.562,-1.57 2.435,-3.641 2.435,-5.8560002 0,-2.2 -0.873,-4.264 -2.435,-5.834 -1.563,-1.547 -3.649,-2.412 -5.865,-2.412 -4.559,0 -8.284,3.695 -8.284,8.247 0,2.2150002 0.865,4.2860002 2.442,5.8560002 1.556,1.554 3.634,2.419 5.842,2.419 m -7.115,-8.2770002 c 0,-1.889 0.728,-3.679 2.085,-5.022 1.351,-1.343 3.141,-2.071 5.03,-2.071 1.912,0 3.702,0.729 5.053,2.071 1.343,1.343 2.087,3.133 2.087,5.022 0,3.9220002 -3.202,7.1080002 -7.14,7.1080002 -1.89,0 -3.68,-0.736 -5.03,-2.079 -1.358,-1.342 -2.085,-3.125 -2.085,-5.0290002 z" fill="#4070b6"/>
  <path d="m 279.38,10.059999 v 3.899 h -1.199 V 4.7949988 h 3.406 c 1.283,0.015 2.034,0.015 2.747,0.553 0.69,0.509 0.979,1.275 0.979,2.125 0,2.14 -1.744,2.42 -2.186,2.511 l 2.58,3.9750002 h -1.449 l -2.511,-3.899 h -2.367 m 0,-1.0090002 h 2.435 c 0.388,0 0.752,0 1.116,-0.091 0.85,-0.205 1.153,-0.812 1.153,-1.479 0,-0.243 -0.023,-0.857 -0.547,-1.282 -0.479,-0.402 -1.085,-0.387 -1.79,-0.387 h -2.367 v 3.239 z" fill="#4070b6"/>
 </g>
</svg>

<svg viewBox="0 0 48 48"><defs><linearGradient id="linearGradient3764" x1="1" x2="47" gradientUnits="userSpaceOnUse" gradientTransform="translate(-47.997785,0.00221467)"><stop stop-color="#327bd6" stop-opacity="1"/><stop offset="1" stop-color="#4488d9" stop-opacity="1"/></linearGradient><clipPath id="clipPath-934042563"><g transform="translate(0,-1004.3622)"><rect rx="4" y="1005.36" x="1" height="46" width="46" fill="#1890d0"/></g></clipPath><clipPath id="clipPath-951465693"><g transform="translate(0,-1004.3622)"><rect rx="4" y="1005.36" x="1" height="46" width="46" fill="#1890d0"/></g></clipPath></defs><g><g transform="translate(0,-1004.3622)"><path d="m 5 1006.36 c -2.216 0 -4 1.784 -4 4 l 0 37.25 c 0 2.216 1.784 4 4 4 l 38 0 c 2.216 0 4 -1.784 4 -4 l 0 -37.25 c 0 -2.216 -1.784 -4 -4 -4 l -38 0 z m -4 41.5 0 0.5 c 0 2.216 1.784 4 4 4 l 38 0 c 2.216 0 4 -1.784 4 -4 l 0 -0.5 c 0 2.216 -1.784 4 -4 4 l -38 0 c -2.216 0 -4 -1.784 -4 -4 z" opacity="0.02"/><path d="m 1 1047.61 0 0.25 c 0 2.216 1.784 4 4 4 l 38 0 c 2.216 0 4 -1.784 4 -4 l 0 -0.25 c 0 2.216 -1.784 4 -4 4 l -38 0 c -2.216 0 -4 -1.784 -4 -4 z" opacity="0.05"/><rect width="46" height="46" x="1" y="1005.61" rx="4" opacity="0.1"/></g></g><g><rect width="46" height="46" x="-46.998" y="1" rx="4" transform="matrix(0,-1,1,0,0,0)" fill="url(#linearGradient3764)" fill-opacity="1"/></g><g/><g><g clip-path="url(#clipPath-934042563)"><g opacity="0.1"><!-- color: #4488d9 --><g><path d="m 34.438 18 c -1.156 0 -2.133 0.703 -2.531 1.688 l -1 3.063 l 0 -4.594 l -4.875 0 c -0.879 0 -1.668 0.348 -2.25 0.938 l 0 -0.938 l -5 0 c -0.93 0 -1.785 0.418 -2.375 1.063 l 0 -1.063 l -4.688 0 c -2.031 0 -3.715 1.641 -3.719 3.813 c 0 1.012 0.438 1.918 1.063 2.594 l -1.063 0 l 0 4.441 l 4.75 0 c 1.332 -0.004 2.637 -0.848 3.094 -1.848 l 0.031 -0.027 c 0.531 1.105 1.625 1.875 2.906 1.875 l 5 0 l 0 -0.973 c 0.586 0.594 1.367 0.973 2.25 0.973 l 13.969 0 l -3 -9.316 c -0.41 -0.988 -1.402 -1.688 -2.563 -1.688 m -0.313 0.781 c 0.109 -0.016 0.199 0 0.313 0 c 0.902 0 1.676 0.555 1.906 1.344 l 2.625 8.094 l -5.063 0 l 0 -1.281 l 3.344 0 l -2.156 -6.594 c -0.105 -0.258 -0.367 -0.438 -0.656 -0.438 c -0.289 0 -0.52 0.207 -0.625 0.469 l -2.594 7.844 l -5.188 0 c -1.387 0 -2.5 -1.16 -2.5 -2.594 l 0 -4.125 c 0 -1.434 1.113 -2.594 2.5 -2.594 l 4.156 0 l 0 1.313 l -4.156 0 c -0.691 0 -1.25 0.563 -1.25 1.281 l 0 4.125 c 0 0.719 0.59 1.313 1.281 1.313 l 2.844 0 l 0 -3.531 l -2.281 0 l 0 -1.273 l 3.563 0 l 0 5.148 l 2.375 -7.148 c 0.203 -0.691 0.809 -1.23 1.563 -1.352 m -22.438 0.125 l 4 0 l 0 1.316 l -4 0 c -0.934 0 -1.688 0.785 -1.688 1.75 c 0 0.969 0.75 1.75 1.688 1.75 l 1.031 0 c 0.773 0 1.406 0.672 1.406 1.469 c 0 0.801 -0.633 1.441 -1.406 1.441 l -4 0 l 0 -1.281 l 4 0 c 0.078 0 0.156 -0.074 0.156 -0.156 c 0 -0.082 -0.078 -0.156 -0.156 -0.156 l -1.031 0 c -1.633 0 -2.969 -1.371 -2.969 -3.063 c 0 -1.691 1.336 -3.066 2.969 -3.066 m 7.094 0 l 4.281 0 l 0 1.316 l -4.281 0 c -0.695 0 -1.25 0.578 -1.25 1.281 l 0 4.125 c 0 0.727 0.555 1.313 1.25 1.313 l 4.25 0 l 0 1.281 l -4.25 0 c -1.391 0 -2.5 -1.16 -2.5 -2.594 l 0 -4.125 c 0 -1.438 1.109 -2.598 2.5 -2.598 m 15.656 1.316 c 0.18 0 0.352 0.117 0.406 0.281 l 2 6.125 l -2.938 0 l 0 -1.156 l -0.906 2.75 l -1.469 0 l 2.531 -7.719 c 0.055 -0.164 0.195 -0.281 0.375 -0.281 m -22.75 0.313 l 4 0 l 0 1.281 l -4 0 c -0.082 0 -0.156 0.07 -0.156 0.156 c 0 0.086 0.074 0.156 0.156 0.156 l 1.031 0 c 1.637 0 2.969 1.371 2.969 3.063 c 0 1.688 -1.332 3.063 -2.969 3.063 l -4 0 l 0 -1.313 l 4 0 c 0.938 0 1.719 -0.785 1.719 -1.75 c 0 -0.965 -0.781 -1.75 -1.719 -1.75 l -1.031 -0.031 c -0.773 0 -1.406 -0.637 -1.406 -1.438 c 0 -0.797 0.633 -1.441 1.406 -1.441 m 7.094 0 l 4.281 0 l 0 1.281 l -3.691 0 c -0.297 0 -0.277 0.316 -0.277 0.316 l 3.063 0 l 0 1.277 l -4.313 0 l 0 -1.902 c 0 -0.547 0.402 -0.973 0.938 -0.973 m 7.25 0 l 4.156 0 l 0 1.281 l -3.566 0 c -0.297 0.008 -0.277 0.316 -0.277 0.316 l 0 2.902 c 0 0.168 0.121 0.316 0.277 0.316 l 0.75 0 l 0 -0.316 l -0.75 0 l 0 -1.313 l 2 0 l 0 2.906 l -2.594 0 c -0.531 0 -0.938 -0.449 -0.938 -1 l 0 -4.125 c 0 -0.551 0.406 -0.973 0.938 -0.973 m -8.188 3.191 l 4.313 0 l 0 1.313 l -3.063 0 c 0.004 0.309 0.281 0.316 0.281 0.316 l 3.656 0 l 0 1.281 l -4.25 0 c -0.527 0 -0.938 -0.453 -0.938 -1 m 16.594 -1.785 l -0.441 1.344 l 0.875 0 m -0.438 -1.344" stroke="none" fill-rule="nonzero" fill-opacity="1" fill="#000"/><path d="m 38.03 19.949 c 0.234 0 0.457 -0.098 0.625 -0.27 c 0.168 -0.172 0.258 -0.402 0.258 -0.645 c 0 -0.242 -0.09 -0.473 -0.258 -0.645 c -0.168 -0.172 -0.391 -0.273 -0.625 -0.273 c -0.488 0 -0.883 0.406 -0.883 0.91 c 0 0.242 0.09 0.48 0.258 0.648 c 0.168 0.172 0.391 0.27 0.625 0.27 m -0.758 -0.914 c 0 -0.211 0.074 -0.402 0.219 -0.555 c 0.145 -0.148 0.336 -0.23 0.539 -0.23 c 0.203 0 0.395 0.082 0.539 0.23 c 0.141 0.148 0.223 0.344 0.223 0.555 c 0 0.438 -0.344 0.785 -0.762 0.785 c -0.203 0 -0.395 -0.082 -0.539 -0.227 c -0.145 -0.148 -0.223 -0.348 -0.223 -0.559 m 0.004 0" stroke="none" fill-rule="nonzero" fill-opacity="1" fill="#000"/><path d="m 37.801 19.11 l 0 0.43 l -0.129 0 l 0 -1.012 l 0.363 0 c 0.137 0 0.219 0 0.293 0.059 c 0.074 0.059 0.105 0.141 0.105 0.234 c 0 0.238 -0.188 0.27 -0.234 0.277 l 0.277 0.441 l -0.156 0 l -0.266 -0.43 l -0.254 0 m 0 -0.113 l 0.258 0 c 0.043 0 0.082 0 0.121 -0.012 c 0.09 -0.02 0.121 -0.09 0.121 -0.16 c 0 -0.027 0 -0.098 -0.059 -0.145 c -0.051 -0.043 -0.113 -0.043 -0.188 -0.043 l -0.254 0 m 0 0.359" stroke="none" fill-rule="nonzero" fill-opacity="1" fill="#000"/></g></g></g></g><g><g clip-path="url(#clipPath-951465693)"><g transform="translate(0,-1)"><!-- color: #4488d9 --><g><path d="m 34.438 18 c -1.156 0 -2.133 0.703 -2.531 1.688 l -1 3.063 l 0 -4.594 l -4.875 0 c -0.879 0 -1.668 0.348 -2.25 0.938 l 0 -0.938 l -5 0 c -0.93 0 -1.785 0.418 -2.375 1.063 l 0 -1.063 l -4.688 0 c -2.031 0 -3.715 1.641 -3.719 3.813 c 0 1.012 0.438 1.918 1.063 2.594 l -1.063 0 l 0 4.441 l 4.75 0 c 1.332 -0.004 2.637 -0.848 3.094 -1.848 l 0.031 -0.027 c 0.531 1.105 1.625 1.875 2.906 1.875 l 5 0 l 0 -0.973 c 0.586 0.594 1.367 0.973 2.25 0.973 l 13.969 0 l -3 -9.316 c -0.41 -0.988 -1.402 -1.688 -2.563 -1.688 m -0.313 0.781 c 0.109 -0.016 0.199 0 0.313 0 c 0.902 0 1.676 0.555 1.906 1.344 l 2.625 8.094 l -5.063 0 l 0 -1.281 l 3.344 0 l -2.156 -6.594 c -0.105 -0.258 -0.367 -0.438 -0.656 -0.438 c -0.289 0 -0.52 0.207 -0.625 0.469 l -2.594 7.844 l -5.188 0 c -1.387 0 -2.5 -1.16 -2.5 -2.594 l 0 -4.125 c 0 -1.434 1.113 -2.594 2.5 -2.594 l 4.156 0 l 0 1.313 l -4.156 0 c -0.691 0 -1.25 0.563 -1.25 1.281 l 0 4.125 c 0 0.719 0.59 1.313 1.281 1.313 l 2.844 0 l 0 -3.531 l -2.281 0 l 0 -1.273 l 3.563 0 l 0 5.148 l 2.375 -7.148 c 0.203 -0.691 0.809 -1.23 1.563 -1.352 m -22.438 0.125 l 4 0 l 0 1.316 l -4 0 c -0.934 0 -1.688 0.785 -1.688 1.75 c 0 0.969 0.75 1.75 1.688 1.75 l 1.031 0 c 0.773 0 1.406 0.672 1.406 1.469 c 0 0.801 -0.633 1.441 -1.406 1.441 l -4 0 l 0 -1.281 l 4 0 c 0.078 0 0.156 -0.074 0.156 -0.156 c 0 -0.082 -0.078 -0.156 -0.156 -0.156 l -1.031 0 c -1.633 0 -2.969 -1.371 -2.969 -3.063 c 0 -1.691 1.336 -3.066 2.969 -3.066 m 7.094 0 l 4.281 0 l 0 1.316 l -4.281 0 c -0.695 0 -1.25 0.578 -1.25 1.281 l 0 4.125 c 0 0.727 0.555 1.313 1.25 1.313 l 4.25 0 l 0 1.281 l -4.25 0 c -1.391 0 -2.5 -1.16 -2.5 -2.594 l 0 -4.125 c 0 -1.438 1.109 -2.598 2.5 -2.598 m 15.656 1.316 c 0.18 0 0.352 0.117 0.406 0.281 l 2 6.125 l -2.938 0 l 0 -1.156 l -0.906 2.75 l -1.469 0 l 2.531 -7.719 c 0.055 -0.164 0.195 -0.281 0.375 -0.281 m -22.75 0.313 l 4 0 l 0 1.281 l -4 0 c -0.082 0 -0.156 0.07 -0.156 0.156 c 0 0.086 0.074 0.156 0.156 0.156 l 1.031 0 c 1.637 0 2.969 1.371 2.969 3.063 c 0 1.688 -1.332 3.063 -2.969 3.063 l -4 0 l 0 -1.313 l 4 0 c 0.938 0 1.719 -0.785 1.719 -1.75 c 0 -0.965 -0.781 -1.75 -1.719 -1.75 l -1.031 -0.031 c -0.773 0 -1.406 -0.637 -1.406 -1.438 c 0 -0.797 0.633 -1.441 1.406 -1.441 m 7.094 0 l 4.281 0 l 0 1.281 l -3.691 0 c -0.297 0 -0.277 0.316 -0.277 0.316 l 3.063 0 l 0 1.277 l -4.313 0 l 0 -1.902 c 0 -0.547 0.402 -0.973 0.938 -0.973 m 7.25 0 l 4.156 0 l 0 1.281 l -3.566 0 c -0.297 0.008 -0.277 0.316 -0.277 0.316 l 0 2.902 c 0 0.168 0.121 0.316 0.277 0.316 l 0.75 0 l 0 -0.316 l -0.75 0 l 0 -1.313 l 2 0 l 0 2.906 l -2.594 0 c -0.531 0 -0.938 -0.449 -0.938 -1 l 0 -4.125 c 0 -0.551 0.406 -0.973 0.938 -0.973 m -8.188 3.191 l 4.313 0 l 0 1.313 l -3.063 0 c 0.004 0.309 0.281 0.316 0.281 0.316 l 3.656 0 l 0 1.281 l -4.25 0 c -0.527 0 -0.938 -0.453 -0.938 -1 m 16.594 -1.785 l -0.441 1.344 l 0.875 0 m -0.438 -1.344" fill="#fff" stroke="none" fill-rule="nonzero" fill-opacity="1"/><path d="m 38.03 19.949 c 0.234 0 0.457 -0.098 0.625 -0.27 c 0.168 -0.172 0.258 -0.402 0.258 -0.645 c 0 -0.242 -0.09 -0.473 -0.258 -0.645 c -0.168 -0.172 -0.391 -0.273 -0.625 -0.273 c -0.488 0 -0.883 0.406 -0.883 0.91 c 0 0.242 0.09 0.48 0.258 0.648 c 0.168 0.172 0.391 0.27 0.625 0.27 m -0.758 -0.914 c 0 -0.211 0.074 -0.402 0.219 -0.555 c 0.145 -0.148 0.336 -0.23 0.539 -0.23 c 0.203 0 0.395 0.082 0.539 0.23 c 0.141 0.148 0.223 0.344 0.223 0.555 c 0 0.438 -0.344 0.785 -0.762 0.785 c -0.203 0 -0.395 -0.082 -0.539 -0.227 c -0.145 -0.148 -0.223 -0.348 -0.223 -0.559 m 0.004 0" fill="#3d70b3" stroke="none" fill-rule="nonzero" fill-opacity="1"/><path d="m 37.801 19.11 l 0 0.43 l -0.129 0 l 0 -1.012 l 0.363 0 c 0.137 0 0.219 0 0.293 0.059 c 0.074 0.059 0.105 0.141 0.105 0.234 c 0 0.238 -0.188 0.27 -0.234 0.277 l 0.277 0.441 l -0.156 0 l -0.266 -0.43 l -0.254 0 m 0 -0.113 l 0.258 0 c 0.043 0 0.082 0 0.121 -0.012 c 0.09 -0.02 0.121 -0.09 0.121 -0.16 c 0 -0.027 0 -0.098 -0.059 -0.145 c -0.051 -0.043 -0.113 -0.043 -0.188 -0.043 l -0.254 0 m 0 0.359" fill="#3d70b3" stroke="none" fill-rule="nonzero" fill-opacity="1"/></g></g></g></g><g><g transform="translate(0,-1004.3622)"><path d="m 1 1043.36 0 4 c 0 2.216 1.784 4 4 4 l 38 0 c 2.216 0 4 -1.784 4 -4 l 0 -4 c 0 2.216 -1.784 4 -4 4 l -38 0 c -2.216 0 -4 -1.784 -4 -4 z" opacity="0.1"/></g></g></svg>
